public/img/camera.svg

<svg xmlns:x="http://ns.adobe.com/Extensibility/1.0/" xmlns:i="http://ns.adobe.com/AdobeIllustrator/10.0/" xmlns:graph="http://ns.adobe.com/Graphs/1.0/" xmlns="http://www.w3.org/2000/svg" xmlns:xlink="http://www.w3.org/1999/xlink" version="1.1" x="0px" y="0px" viewBox="0 0 100 125" enable-background="new 0 0 100 100" xml:space="preserve"><switch><foreignObject requiredExtensions="http://ns.adobe.com/AdobeIllustrator/10.0/" x="0" y="0" width="1" height="1"/><g i:extraneous="self"><path d="M50.4,5C25.3,4.9,5.1,25.1,5,49.9C4.9,74.5,24.9,94.8,49.6,95c0,0,0.3,0,0.3,0c12,0,23.3-4.6,31.9-13.1    c1.8-1.8,3.4-3.7,4.9-5.7c-1.1,0.1-2.2,0.2-3.3,0.2c-9.1,0-15.7-3.7-19.7-7.2c-1.9-1.6-3.4-3.2-4.5-4.6l3.9-1.6    c0.9,1.1,2,2.2,3.4,3.3c5.9,4.9,13,6.9,21,5.9c0.1,0,0.2,0,0.3,0h0c1.1-0.1,2.1-0.7,2.5-1.7c3.2-6.2,4.8-13.1,4.9-20.3    C95.1,25.5,75.1,5.2,50.4,5z M30.7,66.4c-0.6,0.1-1.3,0.1-2-0.1c-1.7-0.6-3.5-2.1-3.5-4.6c0-0.5,0.5-0.9,1-0.8l3.6,1.1l1.5,3.3    C31.5,65.8,31.2,66.4,30.7,66.4z M38.1,69.3c-0.2,0.1-0.4,0.1-0.6,0.1c-0.6,0-1.1-0.3-1.4-0.9l-3.8-8.9l-12.2-3.5    c-1.3-0.4-2.2-1.5-2.3-2.9c-0.1-1.4,0.7-2.6,1.9-3.2l15.6-6.7l9.8,22.8L38.1,69.3z M86,48.3c-0.1,0.4-0.4,0.7-0.8,0.8l-19.8,8.5    l-16.5,6.9l-9.7-22.6l36.2-15.6c0.8-0.3,1.6,0,2,0.8l8.6,20.1C86.1,47.5,86.1,47.9,86,48.3z"/></g></switch></svg>

<?xml version="1.0" encoding="UTF-8" standalone="no"?>
<svg
   xmlns:i="http://ns.adobe.com/AdobeIllustrator/10.0/"
   xmlns:dc="http://purl.org/dc/elements/1.1/"
   xmlns:cc="http://creativecommons.org/ns#"
   xmlns:rdf="http://www.w3.org/1999/02/22-rdf-syntax-ns#"
   xmlns:svg="http://www.w3.org/2000/svg"
   xmlns="http://www.w3.org/2000/svg"
   xmlns:sodipodi="http://sodipodi.sourceforge.net/DTD/sodipodi-0.dtd"
   xmlns:inkscape="http://www.inkscape.org/namespaces/inkscape"
   version="1.1"
   x="0px"
   y="0px"
   viewBox="0 0 100 100"
   enable-background="new 0 0 100 100"
   xml:space="preserve"
   id="svg2"
   inkscape:version="0.48.4 r9939"
   width="100%"
   height="100%"
   sodipodi:docname="camera.svg"><metadata
     id="metadata16"><rdf:RDF><cc:Work
         rdf:about=""><dc:format>image/svg+xml</dc:format><dc:type
           rdf:resource="http://purl.org/dc/dcmitype/StillImage" /></cc:Work></rdf:RDF></metadata><defs
     id="defs14" /><sodipodi:namedview
     pagecolor="#ffffff"
     bordercolor="#666666"
     borderopacity="1"
     objecttolerance="10"
     gridtolerance="10"
     guidetolerance="10"
     inkscape:pageopacity="0"
     inkscape:pageshadow="2"
     inkscape:window-width="1366"
     inkscape:window-height="705"
     id="namedview12"
     showgrid="false"
     inkscape:zoom="1.888"
     inkscape:cx="-32.627119"
     inkscape:cy="62.5"
     inkscape:window-x="-8"
     inkscape:window-y="-8"
     inkscape:window-maximized="1"
     inkscape:current-layer="svg2" /><switch
     id="switch4"
     transform="translate(-0.09981331,1.8484653e-4)"
     style="stroke:none;stroke-opacity:0;fill:#666666;fill-opacity:1"><foreignObject
       requiredExtensions="http://ns.adobe.com/AdobeIllustrator/10.0/"
       x="0"
       y="0"
       width="1"
       height="1"
       id="foreignObject6" /><g
       i:extraneous="self"
       id="g8"
       style="stroke:none;stroke-opacity:0;fill:#666666;fill-opacity:1"><path
         d="M 50.4,5 C 25.3,4.9 5.1,25.1 5,49.9 4.9,74.5 24.9,94.8 49.6,95 c 0,0 0.3,0 0.3,0 12,0 23.3,-4.6 31.9,-13.1 1.8,-1.8 3.4,-3.7 4.9,-5.7 -1.1,0.1 -2.2,0.2 -3.3,0.2 -9.1,0 -15.7,-3.7 -19.7,-7.2 C 61.8,67.6 60.3,66 59.2,64.6 L 63.1,63 c 0.9,1.1 2,2.2 3.4,3.3 5.9,4.9 13,6.9 21,5.9 0.1,0 0.2,0 0.3,0 h 0 c 1.1,-0.1 2.1,-0.7 2.5,-1.7 3.2,-6.2 4.8,-13.1 4.9,-20.3 C 95.1,25.5 75.1,5.2 50.4,5 z M 30.7,66.4 c -0.6,0.1 -1.3,0.1 -2,-0.1 -1.7,-0.6 -3.5,-2.1 -3.5,-4.6 0,-0.5 0.5,-0.9 1,-0.8 l 3.6,1.1 1.5,3.3 c 0.2,0.5 -0.1,1.1 -0.6,1.1 z m 7.4,2.9 c -0.2,0.1 -0.4,0.1 -0.6,0.1 -0.6,0 -1.1,-0.3 -1.4,-0.9 L 32.3,59.6 20.1,56.1 c -1.3,-0.4 -2.2,-1.5 -2.3,-2.9 -0.1,-1.4 0.7,-2.6 1.9,-3.2 l 15.6,-6.7 9.8,22.8 -7,3.2 z M 86,48.3 c -0.1,0.4 -0.4,0.7 -0.8,0.8 L 65.4,57.6 48.9,64.5 39.2,41.9 75.4,26.3 c 0.8,-0.3 1.6,0 2,0.8 L 86,47.2 c 0.1,0.3 0.1,0.7 0,1.1 z"
         id="path10"
         inkscape:connector-curvature="0"
         style="stroke:none;stroke-opacity:0;fill:#666666;fill-opacity:1" /></g></switch></svg>
